X:3513
T:Coyí d'un artu una flor (Arrg.)
R:Tonada
C:Versión de Llan de Cubel
S:Música Tradicional Asturiana, (C) Tello & Tito. Asturies, 2001.
S:http://pagina.de/MusTradAst <telloytito@asturies.org>
A:Asturies
G:Arrg.
Z:Tello
M:4/4
L:1/4
Q:1/2=80
K:D
F|"Bm"B2Bc|"A"cdcA|"F#m"F2FA|"Em"G/A/G FE|"Bm"EFF2-|"Bm"F3 F|
|"Bm"B2Bc|"A"edcA|"F#m"F2FA|"Em"G/A/G FE|"Bm"EFF2-|"Bm"F2 de|
"Bm"f3f|"Bm"f2ed|"F#m"c4|"Bm"B4|
|:"A"e2ed|"A"edcB|"F#"_B=Bcd|[1 "F#m"c2 "Bm"Bd:|[2 "F#m"c2 "Bm"B||


